X:613
T:Lass o' Patie's Mill, The
C:Joe Buchanan's Scottish Tome - Page 180.1
I:180 1
Z:Carl Allison
R:Reel
L:1/8
M:4/4
K:D
A2 | GFED F2 A2 | d2>e2 f2 A2 | Bcdc BAGF | F4 E2 AG |
GFED F2 A2 | d2>e2 f2 A2 | BcdB cdef | d6 :|
ef | gfed dcBA | d2>e2 f2 A2 | Bcdc BAGF | (G4 E2) AG |
GFED F2 A2 | d2>e2 f2 A2 | BcdB cdef | d6 :|

